assets/sonr-icons/keyboard.svg

<svg xmlns="http://www.w3.org/2000/svg" width="24" height="24" fill="none" viewBox="0 0 24 24"><path fill="#000" d="M7.75901 4H16.241C17.046 4 17.71 4 18.252 4.044C18.814 4.09 19.33 4.189 19.816 4.436C20.568 4.819 21.18 5.431 21.564 6.184C21.811 6.669 21.91 7.186 21.955 7.748C21.999 8.289 21.999 8.953 21.999 9.759V14.242C21.999 15.047 21.999 15.711 21.955 16.253C21.909 16.815 21.81 17.331 21.564 17.817C21.181 18.569 20.569 19.181 19.816 19.565C19.331 19.812 18.814 19.911 18.252 19.956C17.71 20 17.047 20 16.241 20H7.75901C6.95401 20 6.29001 20 5.74801 19.956C5.18601 19.91 4.67001 19.811 4.18401 19.565C3.43101 19.182 2.82001 18.57 2.43601 17.817C2.18801 17.332 2.09001 16.815 2.04501 16.253C2.00101 15.711 2.00101 15.048 2.00101 14.242V9.759C2.00101 8.954 2.00101 8.29 2.04501 7.748C2.09101 7.186 2.19001 6.67 2.43701 6.184C2.82001 5.431 3.43201 4.82 4.18501 4.436C4.67001 4.189 5.18701 4.09 5.74901 4.045C6.29101 4.001 6.95401 4.001 7.76001 4.001L7.75901 4ZM5.91101 6.038C5.47201 6.074 5.24901 6.139 5.09201 6.219C4.71601 6.411 4.41001 6.717 4.21801 7.093C4.13801 7.25 4.07301 7.473 4.03701 7.912C4.00001 8.362 3.99901 8.945 3.99901 9.801V14.201C3.99901 15.058 4.00001 15.64 4.03701 16.09C4.07301 16.529 4.13801 16.752 4.21801 16.909C4.41001 17.285 4.71601 17.591 5.09201 17.783C5.24901 17.862 5.47201 17.928 5.91101 17.964C6.36101 18.001 6.94401 18.002 7.80001 18.002H16.2C17.056 18.002 17.639 18.001 18.089 17.964C18.528 17.928 18.751 17.863 18.908 17.783C19.285 17.591 19.591 17.285 19.782 16.909C19.862 16.752 19.927 16.529 19.963 16.09C20 15.64 20 15.057 20 14.201V9.801C20 8.944 19.999 8.362 19.963 7.912C19.927 7.473 19.862 7.25 19.782 7.093C19.59 6.716 19.284 6.41 18.908 6.219C18.751 6.14 18.528 6.074 18.089 6.038C17.639 6.001 17.056 6 16.2 6H7.80001C6.94401 6 6.36201 6.001 5.91101 6.038Z"/><path fill="#000" d="M15 9C14.448 9 14 9.448 14 10C14 10.552 14.448 11 15 11H17C17.552 11 18 10.552 18 10C18 9.448 17.552 9 17 9H15ZM6 14C6 13.448 6.448 13 7 13C7.552 13 8 13.448 8 14C8 14.552 7.552 15 7 15C6.448 15 6 14.552 6 14ZM11 13C10.448 13 10 13.448 10 14C10 14.552 10.448 15 11 15H13C13.552 15 14 14.552 14 14C14 13.448 13.552 13 13 13H11ZM17 13C16.448 13 16 13.448 16 14C16 14.552 16.448 15 17 15C17.552 15 18 14.552 18 14C18 13.448 17.552 13 17 13ZM10 10C10 9.448 10.448 9 11 9C11.552 9 12 9.448 12 10C12 10.552 11.552 11 11 11C10.448 11 10 10.552 10 10ZM7 9C6.448 9 6 9.448 6 10C6 10.552 6.448 11 7 11C7.552 11 8 10.552 8 10C8 9.448 7.552 9 7 9Z"/></svg>

<svg xmlns="http://www.w3.org/2000/svg" width="24" height="24" fill="none"><path fill="currentColor" d="M7.759 4h8.482c.805 0 1.469 0 2.011.044.562.046 1.078.145 1.564.392a4 4 0 0 1 1.748 1.748c.247.485.346 1.002.391 1.564.044.541.044 1.205.044 2.011v4.483c0 .805 0 1.469-.044 2.011-.046.562-.145 1.078-.391 1.564a4 4 0 0 1-1.748 1.748c-.485.247-1.002.346-1.564.391-.542.044-1.205.044-2.011.044H7.759c-.805 0-1.469 0-2.011-.044-.562-.046-1.078-.145-1.564-.391a4 4 0 0 1-1.748-1.748c-.248-.485-.346-1.002-.391-1.564-.044-.542-.044-1.205-.044-2.011V9.759c0-.805 0-1.469.044-2.011.046-.562.145-1.078.392-1.564a4 4 0 0 1 1.748-1.748c.485-.247 1.002-.346 1.564-.391.542-.044 1.205-.044 2.011-.044zM5.911 6.038c-.439.036-.662.101-.819.181a2 2 0 0 0-.874.874c-.08.157-.145.38-.181.819-.037.45-.038 1.033-.038 1.889v4.4c0 .857.001 1.439.038 1.889.036.439.101.662.181.819.192.376.498.682.874.874.157.079.38.145.819.181.45.037 1.033.038 1.889.038h8.4c.856 0 1.439-.001 1.889-.038.439-.036.662-.101.819-.181.377-.192.683-.498.874-.874.08-.157.145-.38.181-.819.037-.45.037-1.033.037-1.889v-4.4c0-.857-.001-1.439-.037-1.889-.036-.439-.101-.662-.181-.819a2 2 0 0 0-.874-.874c-.157-.079-.38-.145-.819-.181C17.639 6.001 17.056 6 16.2 6H7.8c-.856 0-1.438.001-1.889.038"/><path fill="currentColor" d="M15 9a1 1 0 0 0 0 2h2a1 1 0 0 0 0-2zm-9 5a1 1 0 1 1 2 0 1 1 0 0 1-2 0m5-1a1 1 0 0 0 0 2h2a1 1 0 0 0 0-2zm6 0a1 1 0 1 0 0 2 1 1 0 0 0 0-2m-7-3a1 1 0 1 1 2 0 1 1 0 0 1-2 0M7 9a1 1 0 1 0 0 2 1 1 0 0 0 0-2"/></svg>
